resources/haticons/SVG/padding.svg

<!-- Generated by IcoMoon.io -->
<svg version="1.1" xmlns="http://www.w3.org/2000/svg" width="24" height="24" viewBox="0 0 24 24">
<title>padding</title>
<path d="M15 6.984h2.016v2.016h-2.016v-2.016zM6.984 6.984h2.016v2.016h-2.016v-2.016zM11.016 6.984h1.969v2.016h-1.969v-2.016zM18.984 18.984v-13.969h-13.969v13.969h13.969zM3 3h18v18h-18v-18z"></path>
</svg>

<svg xmlns="http://www.w3.org/2000/svg" width="24" height="24"><path d="M15 6.984h2.016V9H15V6.984zm-8.016 0H9V9H6.984V6.984zm4.032 0h1.969V9h-1.969V6.984zm7.968 12V5.015H5.015v13.969h13.969zM3 3h18v18H3V3z"/></svg>
